assets/images/svg/exchange.svg

<svg width="22" height="22" viewBox="0 0 22 22" fill="none" xmlns="http://www.w3.org/2000/svg">
<g clip-path="url(#clip0)">
<path d="M14.9209 16.2373C13.8972 16.9327 12.6791 17.3099 11.4269 17.3099C7.98741 17.3099 5.2034 14.5263 5.2034 11.0864V10.4682H0.877441V11.0864C0.877441 16.9166 5.59569 21.6358 11.4269 21.6358C13.8329 21.6358 16.1493 20.8205 18.0122 19.3286L19.2971 20.6135L20.4403 13.9504L13.7772 15.0936L14.9209 16.2373Z" fill="#E2E2E2"/>
<path d="M11.4271 0.536926C9.02669 0.536926 6.71465 1.34903 4.85382 2.8348L3.57828 1.55926L2.43506 8.22237L9.09816 7.07914L7.94464 5.92562C8.96874 5.22829 10.1601 4.86288 11.4271 4.86288C14.8666 4.86288 17.6506 7.64657 17.6506 11.0864V11.7045H21.9766V11.0864C21.9766 5.25614 17.2583 0.536926 11.4271 0.536926Z" fill="#E2E2E2"/>
</g>
<defs>
<clipPath id="clip0">
<rect width="21.0989" height="21.0989" fill="white" transform="translate(0.877441 0.536926)"/>
</clipPath>
</defs>
</svg>

<svg width="22" height="22" fill="none" xmlns="http://www.w3.org/2000/svg"><g clip-path="url(#clip0)" fill="#E2E2E2"><path d="M14.92 16.237a6.222 6.222 0 01-3.493 1.073 6.22 6.22 0 01-6.224-6.224v-.618H.877v.618c0 5.83 4.719 10.55 10.55 10.55a10.52 10.52 0 006.585-2.307l1.285 1.284 1.143-6.663-6.663 1.144 1.144 1.143zM11.427.537c-2.4 0-4.712.812-6.573 2.298L3.578 1.559 2.435 8.222 9.098 7.08 7.945 5.926a6.127 6.127 0 013.482-1.063 6.22 6.22 0 016.224 6.223v.618h4.326v-.618c0-5.83-4.719-10.55-10.55-10.55z"/></g><defs><clipPath id="clip0"><path fill="#fff" transform="translate(.877 .537)" d="M0 0h21.099v21.099H0z"/></clipPath></defs></svg>
